images/icons/icon-link.svg

<svg fill="none" height="18" viewBox="0 0 18 18" width="18" xmlns="http://www.w3.org/2000/svg"><g stroke="#495eca" stroke-linecap="round" stroke-linejoin="round"><path d="m7.33325 9.83333c.35788.47847.81447.87427 1.33879 1.16077.52433.2865 1.10413.4568 1.70006.4995.596.0427 1.1941-.0433 1.7539-.2521s1.0682-.5356 1.4906-.9582l2.5-2.49997c.759-.78584 1.179-1.83835 1.1695-2.93084s-.4477-2.13754-1.2203-2.91007c-.7725-.77253-1.8176-1.210738-2.91-1.220232-1.0925-.009493-2.145.410482-2.9309 1.169472l-1.43331 1.425"/><path d="m10.6666 8.16667c-.3579-.47844-.81448-.87432-1.3388-1.16079-.52433-.28646-1.10413-.45681-1.70009-.49949-.59595-.04268-1.19411.0433-1.75391.25212-.5598.20883-1.06814.5356-1.49054.95816l-2.5 2.50003c-.759.7858-1.178973 1.8383-1.169479 2.9308.009493 1.0925.447699 2.1375 1.220229 2.9101.77254.7725 1.81759 1.2107 2.91007 1.2202 1.09249.0095 2.145-.4105 2.93084-1.1695l1.425-1.425"/></g></svg>

<svg width="18" height="18" viewBox="0 0 18 18" fill="none" xmlns="http://www.w3.org/2000/svg">
<path d="M7.33325 9.83333C7.69113 10.3118 8.14772 10.7076 8.67204 10.9941C9.19637 11.2806 9.77617 11.4509 10.3721 11.4936C10.9681 11.5363 11.5662 11.4503 12.126 11.2415C12.6858 11.0327 13.1942 10.7059 13.6166 10.2833L16.1166 7.78333C16.8756 6.99749 17.2956 5.94498 17.2861 4.85249C17.2766 3.76 16.8384 2.71495 16.0658 1.94242C15.2933 1.16989 14.2482 0.731682 13.1558 0.722188C12.0633 0.712695 11.0108 1.13267 10.2249 1.89166L8.79159 3.31666" stroke="#495ECA" stroke-linecap="round" stroke-linejoin="round"/>
<path d="M10.6666 8.16667C10.3087 7.68823 9.85212 7.29235 9.3278 7.00588C8.80347 6.71942 8.22367 6.54907 7.62771 6.50639C7.03176 6.46371 6.4336 6.54969 5.8738 6.75851C5.314 6.96734 4.80566 7.29411 4.38326 7.71667L1.88326 10.2167C1.12426 11.0025 0.704287 12.055 0.713781 13.1475C0.723274 14.24 1.16148 15.285 1.93401 16.0576C2.70655 16.8301 3.7516 17.2683 4.84408 17.2778C5.93657 17.2873 6.98908 16.8673 7.77492 16.1083L9.19992 14.6833" stroke="#495ECA" stroke-linecap="round" stroke-linejoin="round"/>
</svg>
